X: 0741
M: 4/4
L: 1/16
K: G
|: e2 |\
g3a gaba g2e2 d3B | gaba gabg a4 a2b2 |\
d'4 d'3b a2ge2a | g3e d3B {B}d6 :|
|: g2 |\
|: d2 |\
g2a2 gabg g2e2 d2B2 | gaba gabg a4 a3b |\
g2a2 gaba g2e2 d2B2 | B2d2 D3E {EF}G6 :|
|: d2 |\
b2 |: g2d'2b3d' c'3d'b2d'2 | g3d'b2g2 a4 a2b2 |\
[1 g3d'bd'3 c'3d'b2d'2 | b2d'2 d3e g4 g2b2 :|\
[2 g3d'b2g2 a3ge2g2 | Bd3D3E G6 |]

